X: 29803
T: O'Carolan's Lament
R: waltz
M: 3/4
K: Gmajor
E>F|G2 A2 B2|e2e B d {B} G|A {B} A G2 G2|
G2G2 e f|g2 f2f{g}f|ee2 f {e} d {B} A|
B2 e2e f|e2e2 e f|g2 f2f{g}f|
ee2 f {e} d {B} A|B2B A G2|D2D2 E>F|
G2 A2 B2|e2e B d {B} G|A {B} A G2 G2|G2G2||

